components/2.0/icon/icons/icon-plus-18px.svg

<svg width="18" height="18" xmlns="http://www.w3.org/2000/svg"><path d="M8 2v6H2v2h6v6h2v-6h6V8h-6V2H8z" fill="#5A5A5A" fill-rule="evenodd"/></svg>

<?xml version="1.0" encoding="UTF-8" standalone="no"?>
<svg width="18px" height="18px" viewBox="0 0 18 18" version="1.1" xmlns="http://www.w3.org/2000/svg" xmlns:xlink="http://www.w3.org/1999/xlink" xmlns:sketch="http://www.bohemiancoding.com/sketch/ns">
    <!-- Generator: Sketch 3.4.4 (17249) - http://www.bohemiancoding.com/sketch -->
    <title>icon-plus-18px</title>
    <desc>Created with Sketch.</desc>
    <defs></defs>
    <g id="18px" stroke="none" stroke-width="1" fill="none" fill-rule="evenodd" sketch:type="MSPage">
        <g id="icon-plus-18px" sketch:type="MSArtboardGroup" fill="#5A5A5A">
            <path d="M8,2 L8,8 L2,8 L2,10 L8,10 L8,16 L10,16 L10,10 L16,10 L16,8 L10,8 L10,2 L8,2 Z" id="plus" sketch:type="MSShapeGroup"></path>
        </g>
    </g>
</svg>
